X:378
T:Lochaber Gathering
R:March
M:C
%%printtempo 0
Q:140
K:A
e>d|\
"A"c2 (B<A) A>B (c<e)| "D"d>ef>g a>e (f<a)| "A"c2 (B<A) A>c (e<c)| "Bm"f>e (d<c) "E"B2e>d|
"A"c2 (B<A) A>B (c<e)| "D"d>ef>g a>e (f<a)| "A"c>A (A<c) "E"(c<e)d>B| "A"c2A2A2::
(3efg|\
"A"a2 (e<f) e>A (c<A)| a2(c<e) f>ed>c| a2(e<f) e>A (c<e)| "Bm"f>e (d<c) "E"B2 (3efg|
"A"a2 (e<f) e>A (c<A)| a2c>e a2 (e<d)|c>AA>c "E"(c<e)d>B| "A"c2A2A2::
!pp!"A"e>d|\
"A"c>AA>c (c<e)A>d| "D"d>AA>d (d<f)B>d| "A"c>AA>c (c<A)c>e| "Bm"f>ed>c "E"B2 e>d|
"A"c>AA>c (c<e)a>c| "D"d>AA>d (d<f)B>d| "A"c>AA>c (c<e)d>B| "A"c2A2A2::
(3!f!efg|\
"A"a2 a>e (c<e)c>A| "D"(d<f)(d<B) "A"(c<e)(c<A)| "D"d>fB>d "A"c>eA>e| "Bm"f>ed>c "E"B2 (3efg|
"A"a2 a>e (c<e)c>A| "D"(d<f)(d<B) "A"(c<e)c>A| c>AA>c "E"(c<e)d>B| "A"c2A2A2:|
